X: 28818
T: My Otis Tomas Mandolin
R: reel
M: 4/4
K: Cmajor
E2cE dEcE|E2GE FDB,D|E2cE dEcE|FDB,G ECCD|
E2cE dEcE|E2GE FDB,D|C2EG cdec|1 dBGB dccD:|2 dBGB dcc2|
|:GECE Gceg|a/g/^f ag {a}gece|dGGG d2e2|dGGG Bcdf|
eccc Gceg|a/g/^f ag {a}gece|dGGG Bcdf|1 ecdB c2cA:|2 ecdBc c4|

